Numix/22x22/categories/applications-astronomy.svg

<?xml version="1.0" encoding="UTF-8" standalone="no"?>
<svg
   xmlns:dc="http://purl.org/dc/elements/1.1/"
   xmlns:cc="http://creativecommons.org/ns#"
   xmlns:rdf="http://www.w3.org/1999/02/22-rdf-syntax-ns#"
   xmlns:svg="http://www.w3.org/2000/svg"
   xmlns="http://www.w3.org/2000/svg"
   xmlns:sodipodi="http://sodipodi.sourceforge.net/DTD/sodipodi-0.dtd"
   xmlns:inkscape="http://www.inkscape.org/namespaces/inkscape"
   width="22"
   height="22"
   viewBox="0 0 22 22"
   id="svg2"
   version="1.1"
   inkscape:version="0.91 r"
   sodipodi:docname="applications-astronomy.svg">
  <metadata
     id="metadata24">
    <rdf:RDF>
      <cc:Work
         rdf:about="">
        <dc:format>image/svg+xml</dc:format>
        <dc:type
           rdf:resource="http://purl.org/dc/dcmitype/StillImage" />
      </cc:Work>
    </rdf:RDF>
  </metadata>
  <defs
     id="defs22" />
  <sodipodi:namedview
     pagecolor="#ffffff"
     bordercolor="#666666"
     borderopacity="1"
     objecttolerance="10"
     gridtolerance="10"
     guidetolerance="10"
     inkscape:pageopacity="0"
     inkscape:pageshadow="2"
     inkscape:window-width="930"
     inkscape:window-height="480"
     id="namedview20"
     showgrid="false"
     inkscape:zoom="10.727273"
     inkscape:cx="11"
     inkscape:cy="11"
     inkscape:window-x="10"
     inkscape:window-y="34"
     inkscape:window-maximized="0"
     inkscape:current-layer="svg2" />
  <g
     style="fill:#a98bc7"
     id="g4"
     transform="matrix(0.99954286,0,0,0.99954062,0.11823925,0.11828264)">
    <path
       d="m 10.636719,2.382812 c -5.035157,0 -8.714844,3.882813 -8.207031,8.648438 0.421874,4.019531 3.6875,7.394531 7.71875,8.359375 -0.6875,-1.125 -1.132813,-2.394531 -1.273438,-3.726563 -0.507812,-4.765624 3.175781,-8.613281 8.210938,-8.613281 0.789062,0 1.550781,0.097657 2.304687,0.277344 C 17.613281,4.414062 14.269531,2.382812 10.636719,2.382812 Z m 0,1.78125 c 1.578125,0 3.097656,0.488282 4.402343,1.292969 C 10.125,6.410156 6.59375,10.75 7.109375,15.824219 5.542969,14.527344 4.398438,12.773438 4.191406,10.839844 3.792969,7.078125 6.515625,4.164062 10.636719,4.164062 Z"
       id="path6"
       inkscape:connector-curvature="0" />
    <path
       d="m 6.453125,5.605469 c 0.890625,0 1.609375,0.863281 1.609375,1.929687 l 0,6.839844 c 0,1.070312 -0.71875,1.933594 -1.609375,1.933594 -0.886719,0 -1.609375,-0.863282 -1.609375,-1.933594 l 0,-6.839844 c 0,-1.066406 0.722656,-1.929687 1.609375,-1.929687 z"
       id="path8"
       inkscape:connector-curvature="0" />
    <path
       d="m 5.394531,6.792969 c 0.863281,0 1.566407,0.867187 1.566407,1.933593 l 0,3.667969 c 0,1.066407 -0.703126,1.929688 -1.566407,1.929688 -0.863281,0 -1.5625,-0.863281 -1.5625,-1.929688 l 0,-3.667969 c 0,-1.066406 0.699219,-1.933593 1.5625,-1.933593 z"
       id="path10"
       inkscape:connector-curvature="0" />
    <path
       d="m 7.421875,4.722656 c 0.890625,0 1.609375,0.867188 1.609375,1.929688 l 0,2.65625 c 0,1.070312 -0.71875,1.933594 -1.609375,1.933594 -0.886719,0 -1.609375,-0.863282 -1.609375,-1.933594 l 0,-2.65625 c 0,-1.0625 0.722656,-1.929688 1.609375,-1.929688 z"
       id="path12"
       inkscape:connector-curvature="0" />
    <path
       d="m 8.1875,3.179688 2.304688,0 c 1.066406,0 1.929687,0.867187 1.929687,1.933593 l 0,1.421875 c 0,1.066406 -0.863281,1.929688 -1.929687,1.929688 l -2.304688,0 c -1.066406,0 -1.933594,-0.863282 -1.933594,-1.929688 l 0,-1.421875 c 0,-1.066406 0.867188,-1.933593 1.933594,-1.933593 z"
       id="path14"
       inkscape:connector-curvature="0" />
    <path
       d="m 9.097656,6.355469 c 0.621094,0 1.125,0.835937 1.125,1.867187 0,1.035156 -0.503906,1.875 -1.125,1.875 -0.621094,0 -1.125,-0.839844 -1.125,-1.875 0,-1.03125 0.503906,-1.867187 1.125,-1.867187 z"
       id="path16"
       inkscape:connector-curvature="0" />
    <path
       d="m 12.8125,4.015625 0.363281,0 c 1.070313,0 1.933594,0.613281 1.933594,1.367187 0,0.757813 -0.863281,1.367188 -1.933594,1.367188 l -0.363281,0 c -1.066406,0 -1.929688,-0.609375 -1.929688,-1.367188 0,-0.753906 0.863282,-1.367187 1.929688,-1.367187 z"
       id="path18"
       inkscape:connector-curvature="0" />
  </g>
</svg>

<svg width="22" xmlns="http://www.w3.org/2000/svg" height="22" viewBox="0 0 22 22" xmlns:xlink="http://www.w3.org/1999/xlink">
<g style="fill:#a98bc7">
<path d="M 10.636719 2.382812 C 5.601562 2.382812 1.921875 6.265625 2.429688 11.03125 C 2.851562 15.050781 6.117188 18.425781 10.148438 19.390625 C 9.460938 18.265625 9.015625 16.996094 8.875 15.664062 C 8.367188 10.898438 12.050781 7.050781 17.085938 7.050781 C 17.875 7.050781 18.636719 7.148438 19.390625 7.328125 C 17.613281 4.414062 14.269531 2.382812 10.636719 2.382812 Z M 10.636719 4.164062 C 12.214844 4.164062 13.734375 4.652344 15.039062 5.457031 C 10.125 6.410156 6.59375 10.75 7.109375 15.824219 C 5.542969 14.527344 4.398438 12.773438 4.191406 10.839844 C 3.792969 7.078125 6.515625 4.164062 10.636719 4.164062 Z "/>
<path d="M 6.453125 5.605469 C 7.34375 5.605469 8.0625 6.46875 8.0625 7.535156 L 8.0625 14.375 C 8.0625 15.445312 7.34375 16.308594 6.453125 16.308594 C 5.566406 16.308594 4.84375 15.445312 4.84375 14.375 L 4.84375 7.535156 C 4.84375 6.46875 5.566406 5.605469 6.453125 5.605469 Z "/>
<path d="M 5.394531 6.792969 C 6.257812 6.792969 6.960938 7.660156 6.960938 8.726562 L 6.960938 12.394531 C 6.960938 13.460938 6.257812 14.324219 5.394531 14.324219 C 4.53125 14.324219 3.832031 13.460938 3.832031 12.394531 L 3.832031 8.726562 C 3.832031 7.660156 4.53125 6.792969 5.394531 6.792969 Z "/>
<path d="M 7.421875 4.722656 C 8.3125 4.722656 9.03125 5.589844 9.03125 6.652344 L 9.03125 9.308594 C 9.03125 10.378906 8.3125 11.242188 7.421875 11.242188 C 6.535156 11.242188 5.8125 10.378906 5.8125 9.308594 L 5.8125 6.652344 C 5.8125 5.589844 6.535156 4.722656 7.421875 4.722656 Z "/>
<path d="M 8.1875 3.179688 L 10.492188 3.179688 C 11.558594 3.179688 12.421875 4.046875 12.421875 5.113281 L 12.421875 6.535156 C 12.421875 7.601562 11.558594 8.464844 10.492188 8.464844 L 8.1875 8.464844 C 7.121094 8.464844 6.253906 7.601562 6.253906 6.535156 L 6.253906 5.113281 C 6.253906 4.046875 7.121094 3.179688 8.1875 3.179688 Z "/>
<path d="M 9.097656 6.355469 C 9.71875 6.355469 10.222656 7.191406 10.222656 8.222656 C 10.222656 9.257812 9.71875 10.097656 9.097656 10.097656 C 8.476562 10.097656 7.972656 9.257812 7.972656 8.222656 C 7.972656 7.191406 8.476562 6.355469 9.097656 6.355469 Z "/>
<path d="M 12.8125 4.015625 L 13.175781 4.015625 C 14.246094 4.015625 15.109375 4.628906 15.109375 5.382812 C 15.109375 6.140625 14.246094 6.75 13.175781 6.75 L 12.8125 6.75 C 11.746094 6.75 10.882812 6.140625 10.882812 5.382812 C 10.882812 4.628906 11.746094 4.015625 12.8125 4.015625 Z "/>
</g>
</svg>
